dist/svg/gavel.svg

<!-- Generated by Trend Micro Style Portal -->
<svg version="1.1" xmlns="http://www.w3.org/2000/svg" width="16" height="16" viewBox="0 0 16 16">
  <title>gavel</title>
  <path fill="rgb(34,34,34)" d="M11.4 9.6c-0.4 0.4-1 0.4-1.4 0l-0.8-0.7-6.8 6.8c-0.4 0.4-1 0.4-1.4 0l-0.7-0.7c-0.4-0.4-0.4-1 0-1.4l6.8-6.8-0.7-0.7c-0.4-0.4-0.4-1.1 0-1.5l2.2-2.2c0.4-0.4 1.1-0.4 1.5 0l3.5 3.5c0.4 0.4 0.4 1 0 1.4l-2.2 2.3zM5.7 4.6l2.9-2.9c0.4-0.4 0.4-1 0-1.4s-1-0.4-1.4 0l-2.9 2.9c-0.4 0.4-0.4 1 0 1.4s1 0.4 1.4 0zM15.7 7.4c-0.4-0.4-1-0.4-1.4 0l-2.9 2.9c-0.4 0.4-0.4 1 0 1.4s1 0.4 1.4 0l2.9-2.9c0.4-0.4 0.4-1 0-1.4z"></path>
</svg>

<svg width="16" height="16" viewBox="0 0 16 16" fill="rgb(34, 34, 34)" xmlns="http://www.w3.org/2000/svg"><title>gavel</title><path d="M11.4 9.6C11 10 10.4 10 10 9.6L9.2 8.9L2.4 15.7C2 16.1 1.4 16.1 1 15.7L0.3 15C-0.1 14.6 -0.1 14 0.3 13.6L7.1 6.8L6.4 6.1C6 5.7 6 5 6.4 4.6L8.6 2.4C9 2 9.7 2 10.1 2.4L13.6 5.9C14 6.3 14 6.9 13.6 7.3L11.4 9.6ZM5.7 4.6L8.6 1.7C9 1.3 9 0.7 8.6 0.3C8.2 -0.1 7.6 -0.1 7.2 0.3L4.3 3.2C3.9 3.6 3.9 4.2 4.3 4.6C4.7 5 5.3 5 5.7 4.6ZM15.7 7.4C15.3 7 14.7 7 14.3 7.4L11.4 10.3C11 10.7 11 11.3 11.4 11.7C11.8 12.1 12.4 12.1 12.8 11.7L15.7 8.8C16.1 8.4 16.1 7.8 15.7 7.4Z" fill="rgb(34, 34, 34)" fill-opacity="1.00"/></svg>
